svg/fluentui-system-icons/ic_fluent_poll_horizontal_16_regular.svg

<svg width="16" height="16" viewBox="0 0 16 16" fill="none" xmlns="http://www.w3.org/2000/svg">
<path d="M15 8C15 6.89543 14.1046 6 13 6H3C1.89543 6 1 6.89543 1 8C1 9.10457 1.89543 10 3 10H13C14.1046 10 15 9.10457 15 8ZM13 9H3C2.44771 9 2 8.55228 2 8C2 7.44772 2.44772 7 3 7H13C13.5523 7 14 7.44772 14 8C14 8.55228 13.5523 9 13 9ZM9 3C9 1.89543 8.10457 1 7 1H3C1.89543 1 1 1.89543 1 3C1 4.10457 1.89543 5 3 5H7C8.10457 5 9 4.10457 9 3ZM3 4C2.44772 4 2 3.55228 2 3C2 2.44772 2.44772 2 3 2H7C7.55228 2 8 2.44772 8 3C8 3.55228 7.55228 4 7 4H3ZM9 11C10.1046 11 11 11.8954 11 13C11 14.1046 10.1046 15 9 15H3C1.89543 15 1 14.1046 1 13C1 11.8954 1.89543 11 3 11H9ZM9 14C9.55228 14 10 13.5523 10 13C10 12.4477 9.55228 12 9 12H3C2.44772 12 2 12.4477 2 13C2 13.5523 2.44771 14 3 14H9Z" fill="#212121"/>
</svg>

<svg xmlns="http://www.w3.org/2000/svg" width="16" height="16"><path d="M15 8a2 2 0 0 0-2-2H3a2 2 0 1 0 0 4h10a2 2 0 0 0 2-2Zm-2 1H3a1 1 0 1 1 0-2h10a1 1 0 1 1 0 2ZM9 3a2 2 0 0 0-2-2H3a2 2 0 1 0 0 4h4a2 2 0 0 0 2-2ZM3 4a1 1 0 0 1 0-2h4a1 1 0 0 1 0 2H3Zm6 7a2 2 0 1 1 0 4H3a2 2 0 1 1 0-4h6Zm0 3a1 1 0 1 0 0-2H3a1 1 0 1 0 0 2h6Z"/></svg>
